assets/images/manufacturing/item-3.svg

<svg width="40" height="41" viewBox="0 0 40 41" fill="none" xmlns="http://www.w3.org/2000/svg">
<path d="M39.4118 13.9132H36.4524C36.2594 8.99266 33.3388 4.56937 28.5412 2.00803C28.3588 1.91033 28.1324 1.90723 27.9471 1.99924C27.7624 2.09074 27.6471 2.26287 27.6471 2.45V7.71018H25.2941V1.05276C25.2941 0.826349 25.1265 0.625783 24.88 0.559101C23.8965 0.291336 22.87 0.104727 21.8288 0.00341035C21.6629 -0.0120973 21.4971 0.033909 21.3724 0.132124C21.2476 0.230339 21.1765 0.370424 21.1765 0.517229V6.15942H18.8235V0.517229C18.8235 0.370424 18.7524 0.230339 18.6276 0.132124C18.5029 0.033909 18.3359 -0.013648 18.1706 0.00341035C17.1288 0.104727 16.1018 0.291336 15.12 0.559101C14.8735 0.625783 14.7059 0.825832 14.7059 1.05276V7.71018H12.3529V2.45C12.3529 2.26339 12.2382 2.09125 12.0529 1.99924C11.8682 1.90775 11.6412 1.91085 11.4594 2.00803C6.66176 4.56937 3.74059 8.99266 3.54824 13.9132H0.588235C0.263529 13.9132 0 14.1448 0 14.4302V17.5317C0 17.817 0.263529 18.0486 0.588235 18.0486H39.4118C39.7371 18.0486 40 17.817 40 17.5317V14.4302C40 14.1448 39.7371 13.9132 39.4118 13.9132ZM11.1765 3.4063V8.2271C11.1765 8.51244 11.44 8.74403 11.7647 8.74403H15.2941C15.6188 8.74403 15.8824 8.51244 15.8824 8.2271V1.43942C16.4582 1.29881 17.0482 1.18768 17.6471 1.10652V6.67634C17.6471 6.96168 17.9106 7.19326 18.2353 7.19326H21.7647C22.09 7.19326 22.3529 6.96168 22.3529 6.67634V1.10704C22.9518 1.18768 23.5418 1.29933 24.1176 1.43993V8.2271C24.1176 8.51244 24.3806 8.74403 24.7059 8.74403H28.2353C28.5606 8.74403 28.8235 8.51244 28.8235 8.2271V3.4063C32.7353 5.83014 35.1059 9.67035 35.2824 13.9132H4.71706C4.8953 9.67035 7.26412 5.83014 11.1765 3.4063ZM38.8235 17.0148H1.17647V14.9471H4.11765H35.8824H38.8235V17.0148Z" fill="#0029FF"/>
<path d="M19.9988 35.1064C11.8524 35.1064 5.29297 26.6229 5.29297 19.5992C5.29297 19.3138 5.5565 19.0823 5.8812 19.0823C6.20591 19.0823 6.46944 19.3138 6.46944 19.5992C6.46944 26.1143 12.7124 34.0726 19.9988 34.0726C27.2853 34.0726 33.5283 26.1143 33.5283 19.5992C33.5283 19.3138 33.7912 19.0823 34.1165 19.0823C34.4418 19.0823 34.7047 19.3138 34.7047 19.5992C34.7047 26.6229 28.1459 35.1064 19.9988 35.1064Z" fill="#0029FF"/>
<path d="M20.0024 40.9543C19.8736 40.9543 19.7447 40.9176 19.6377 40.8431L11.2177 34.9949C10.963 34.8176 10.9194 34.4925 11.1206 34.2692C11.3224 34.0443 11.693 34.0071 11.9471 34.1844L20.0024 39.7788L28.0571 34.1844C28.3136 34.0066 28.6824 34.0453 28.883 34.2692C29.0841 34.494 29.0418 34.8186 28.7865 34.9949L20.3671 40.8431C20.26 40.9171 20.1312 40.9543 20.0024 40.9543Z" fill="#0029FF"/>
</svg>

<svg width="40" height="41" fill="none" xmlns="http://www.w3.org/2000/svg"><path d="M39.412 13.913h-2.96c-.193-4.92-3.113-9.344-7.91-11.905a.656.656 0 00-.595-.009.511.511 0 00-.3.451v5.26h-2.353V1.053c0-.227-.168-.427-.414-.494a18.448 18.448 0 00-3.051-.556.644.644 0 00-.457.13.492.492 0 00-.195.384V6.16h-2.354V.517a.492.492 0 00-.195-.385.639.639 0 00-.457-.129A18.398 18.398 0 0015.12.56c-.246.067-.414.267-.414.494V7.71h-2.353V2.45a.511.511 0 00-.3-.45.658.658 0 00-.594.008C6.662 4.569 3.741 8.993 3.55 13.913H.588c-.325 0-.589.232-.589.517v3.102c0 .285.264.517.588.517h38.824c.325 0 .588-.232.588-.517V14.43c0-.285-.263-.517-.588-.517zM11.177 3.406v4.821c0 .285.263.517.588.517h3.53c.324 0 .587-.232.587-.517V1.44c.576-.14 1.166-.251 1.765-.332v5.57c0 .285.264.516.588.516h3.53c.325 0 .588-.231.588-.517v-5.57c.599.08 1.189.192 1.765.333v6.787c0 .285.263.517.588.517h3.53c.325 0 .587-.232.587-.517v-4.82c3.912 2.423 6.283 6.263 6.46 10.506H4.716c.178-4.243 2.547-8.083 6.46-10.507zm27.647 13.609H1.175v-2.068h37.648v2.068zM19.999 35.106c-8.147 0-14.706-8.483-14.706-15.507 0-.285.263-.517.588-.517.325 0 .588.232.588.517 0 6.515 6.243 14.474 13.53 14.474 7.286 0 13.53-7.959 13.53-14.474 0-.285.262-.517.587-.517.326 0 .589.232.589.517 0 7.024-6.56 15.507-14.706 15.507z" fill="#0029FF"/><path d="M20.002 40.954a.639.639 0 01-.364-.11l-8.42-5.85c-.255-.176-.299-.502-.097-.725a.644.644 0 01.826-.085l8.055 5.595 8.055-5.595a.643.643 0 01.826.085.476.476 0 01-.096.726l-8.42 5.848a.643.643 0 01-.365.111z" fill="#0029FF"/></svg>
